static/icon/bmbadge_waitfree_black.svg

<svg fill="none" height="20" viewBox="0 0 20 20" width="20" xmlns="http://www.w3.org/2000/svg"><path clip-rule="evenodd" d="m10 0c5.523 0 10 4.477 10 10s-4.477 10-10 10-10-4.477-10-10 4.477-10 10-10zm-.5 4c-.828 0-1.5.672-1.5 1.5v4c0 .139.019.273.053.4-.128.485-.004 1.023.372 1.405l3.812 3.868.018.018c.557.545 1.451.536 1.997-.022.558-.57.557-1.483-.003-2.051l-3.277-3.327c.018-.094.028-.191.028-.291v-4c0-.828-.672-1.5-1.5-1.5z" fill="#212529" fill-rule="evenodd"/></svg>

<svg width="20" height="20" viewBox="0 0 20 20" fill="none" xmlns="http://www.w3.org/2000/svg">
<path fill-rule="evenodd" clip-rule="evenodd" d="M10 0C15.523 0 20 4.477 20 10C20 15.523 15.523 20 10 20C4.477 20 0 15.523 0 10C0 4.477 4.477 0 10 0ZM9.5 4C8.672 4 8 4.672 8 5.5V9.5C8 9.639 8.019 9.773 8.053 9.9C7.925 10.385 8.049 10.923 8.425 11.305L12.237 15.173L12.255 15.191C12.812 15.736 13.706 15.727 14.252 15.169C14.81 14.599 14.809 13.686 14.249 13.118L10.972 9.791C10.99 9.697 11 9.6 11 9.5V5.5C11 4.672 10.328 4 9.5 4V4Z" fill="#212529"/>
</svg>
